src/svgs/file-tree.svg

<svg xmlns="http://www.w3.org/2000/svg" viewBox="0 0 24 24" width="512" height="512"><path d="M17 15v-1H7v4h10v-1h4v4h-4v-1H5V9H3V3h6v6H7v3h10v-1h4v4z"/></svg>

<svg xmlns="http://www.w3.org/2000/svg" viewBox="0 0 24 24"><path d="M17,15V14H7v4H17V17h4v4H17V20H5V9H3V3H9V9H7v3H17V11h4v4Z"/></svg>
